X: 195
T: Pourquoy non
N: Derived from Rue3018-Pourquoy_non.krn
C: Pierre de la Rue
%%abc-version 2.0
%%abcx-abcm2ps-target-version 5.9.1 (29 Sep 2008)
%%abc-creator hum2abc beta
%%abcx-conversion-date 2019/02/17 08:01:18
%%abc-edited-by Jesse Rodin
%%abc-edited-by Chris Gage 06-17-2013
%%abcx-initial-encoding-date 2013/08/13/
%%humdrum-veritas 439496641
%%humdrum-veritas-data 3579787761
%%linebreak <none>
%%barnumbers 0
L: 1/4
M: 2/1
Q: 1/2=120
%%staves [1 2 3 4]
V: 1 clef=treble-8
V: 2 clef=bass
V: 3 clef=bass
V: 4 clef=bass
K: Bb
[V:1] z8 | 
[V:2] E,8 | 
[V:3] z8 | 
[V:4] z8 | 
[V:1] z8 | 
[V:2] _A,8 | 
[V:3] z8 | 
[V:4] z8 | 
[V:1] B8 | 
[V:2] G,4E,4- | 
[V:3] z8 | 
[V:4] z8 | 
[V:1] e8 | 
[V:2] E,2F,2G,2A,2 | 
[V:3] z8 | 
[V:4] z8 | 
[V:1] d6cB | 
[V:2] B,6A,G, | 
[V:3] B,,8 | 
[V:4] z8 | 
[V:1] c2B3AGF | 
[V:2] A,3G,B,4 | 
[V:3] E,6D,2 | 
[V:4] z8 | 
[V:1] E4z2e2- | 
[V:2] z2E,3F,G,2- | 
[V:3] C,4B,,4 | 
[V:4] E,,8 | 
[V:1] e2d2c4 | 
[V:2] G,2F,E,F,4 | 
[V:3] C,8 | 
[V:4] _A,,8 | 
[V:1] !fermata!B8 | 
[V:2] !fermata!G,8 | 
[V:3] !fermata!D,8 | 
[V:4] !fermata!G,,8 | 
[V:1] z4e4 | 
[V:2] z4B,4 | 
[V:3] z4G,4 | 
[V:4] z4E,,4 | 
[V:1] e4e4 | 
[V:2] B,4B,4 | 
[V:3] G,4G,4 | 
[V:4] E,,4E,,4 | 
[V:1] d2c4BA | 
[V:2] A,4F,4 | 
[V:3] F,2E,4D,2 | 
[V:4] F,,8 | 
[V:1] G8- | 
[V:2] z2B,,4C,2 | 
[V:3] E,4z2E,2 | 
[V:4] E,,8- | 
[V:1] G8- | 
[V:2] E,3D,C,2B,,2 | 
[V:3] C,2B,,2E,4 | 
[V:4] E,,8- | 
[V:1] !fermata!G8 | 
[V:2] !fermata!E,8 | 
[V:3] !fermata!B,,8 | 
[V:4] !fermata!E,,8 | 
[V:1] z8 | 
[V:2] E,8 | 
[V:3] z8 | 
[V:4] z8 | 
[V:1] z8 | 
[V:2] _A,8 | 
[V:3] z8 | 
[V:4] z8 | 
[V:1] B8 | 
[V:2] G,4E,4- | 
[V:3] z8 | 
[V:4] z8 | 
[V:1] e8 | 
[V:2] E,2F,2G,2A,2 | 
[V:3] z8 | 
[V:4] z8 | 
[V:1] d6cB | 
[V:2] B,6A,G, | 
[V:3] B,,8 | 
[V:4] z8 | 
[V:1] c2B3AGF | 
[V:2] A,3G,B,4 | 
[V:3] E,6D,2 | 
[V:4] z8 | 
[V:1] E4e4 | 
[V:2] z2E,3F,G,2- | 
[V:3] C,4B,,4 | 
[V:4] E,,8 | 
[V:1] c2f3edc | 
[V:2] G,2F,E,F,4 | 
[V:3] C,8 | 
[V:4] _A,,8 | 
[V:1] !fermata!B8 | 
[V:2] !fermata!G,8 | 
[V:3] !fermata!D,8 | 
[V:4] !fermata!G,,8 | 
[V:1] z4d4 | 
[V:2] z4F,4 | 
[V:3] z4D,4 | 
[V:4] z4B,,4 | 
[V:1] d4d4 | 
[V:2] B,4B,4 | 
[V:3] F,4F,4 | 
[V:4] B,,4B,,4 | 
[V:1] c2B4e2- | 
[V:2] G,3A,B,4- | 
[V:3] G,6F,E, | 
[V:4] E,,8 | 
[V:1] e2d2e4 | 
[V:2] B,4z2A,2 | 
[V:3] F,4z2E,2 | 
[V:4] B,,4C,4 | 
[V:1] z2d2e4 | 
[V:2] B,4G,2A,2 | 
[V:3] F,4z2E,2 | 
[V:4] B,,4C,4 | 
[V:1] z2d2e2c2- | 
[V:2] B,4E,4 | 
[V:3] F,3E,C,4 | 
[V:4] B,,4_A,,4- | 
[V:1] c2B_AB2G2 | 
[V:2] C,4D,4 | 
[V:3] E,3F,G,3F, | 
[V:4] A,,4G,,4 | 
[V:1] _AGFEF4 | 
[V:2] z2B,,4B,2- | 
[V:3] D,2E,4D,2 | 
[V:4] F,,2E,,2B,,4 | 
[V:1] E8 | 
[V:2] B,2A,2G,4 | 
[V:3] E,8 | 
[V:4] E,,8 | 
[V:1] _A8 | 
[V:2] F,8 | 
[V:3] _A,,8 | 
[V:4] _D,,8 | 
[V:1] G4z2B2 | 
[V:2] E,6D,2 | 
[V:3] C,3B,,B,,4 | 
[V:4] E,,8 | 
[V:1] c4e4 | 
[V:2] E,2F,2G,4 | 
[V:3] z4E,4 | 
[V:4] z4E,,4 | 
[V:1] d4c4 | 
[V:2] z4C,4 | 
[V:3] F,8- | 
[V:4] B,,4A,,4 | 
[V:1] f6e2 | 
[V:2] B,,6C,2 | 
[V:3] F,8 | 
[V:4] D,6C,2 | 
[V:1] d4c4 | 
[V:2] D,2B,,2C,4 | 
[V:3] F,4F,4 | 
[V:4] B,,4A,,4 | 
[V:1] B8 | 
[V:2] D,4E,4 | 
[V:3] G,8 | 
[V:4] G,,4E,,4 | 
[V:1] A8 | 
[V:2] C,8- | 
[V:3] F,8 | 
[V:4] F,,8 | 
[V:1] G8 | 
[V:2] C,8 | 
[V:3] E,8- | 
[V:4] z4C,4 | 
[V:1] z4c4 | 
[V:2] z4z2C2- | 
[V:3] E,8 | 
[V:4] C,2C,2C,2_A,,2- | 
[V:1] c2c4A2- | 
[V:2] CB,A,2G,2F,2 | 
[V:3] z8 | 
[V:4] A,,2G,,F,,E,,2F,,2 | 
[V:1] A2GFG4 | 
[V:2] E,2F,4=E,2 | 
[V:3] z8 | 
[V:4] C,2D,2C,4 | 
[V:1] F4z2f2- | 
[V:2] F,8 | 
[V:3] z4F,4 | 
[V:4] F,,8 | 
[V:1] fed2c2B2 | 
[V:2] z8 | 
[V:3] F,2F,4D,2- | 
[V:4] z8 | 
[V:1] A2B4A2 | 
[V:2] z4F,4 | 
[V:3] D,2C,B,,C,4 | 
[V:4] z4F,,4 | 
[V:1] B8 | 
[V:2] D,4E,4 | 
[V:3] B,,8- | 
[V:4] G,,4E,,4- | 
[V:1] z4G4 | 
[V:2] B,8 | 
[V:3] B,,8 | 
[V:4] E,,2D,,2E,,4 | 
[V:1] F4F4 | 
[V:2] A,4A,4 | 
[V:3] z8 | 
[V:4] F,,4D,,4 | 
[V:1] E4B4 | 
[V:2] G,4E,3D, | 
[V:3] z4G,4 | 
[V:4] E,,4z2E,,2 | 
[V:1] A4A4 | 
[V:2] C,4D,4 | 
[V:3] F,4F,4 | 
[V:4] F,,4D,,4 | 
[V:1] G4z2d2 | 
[V:2] B,,8 | 
[V:3] E,4B,4 | 
[V:4] E,,2G,,3A,,B,,2 | 
[V:1] e4f4 | 
[V:2] z4F,4 | 
[V:3] _A,4A,4 | 
[V:4] C,4D,4 | 
[V:1] g6fe | 
[V:2] E,2G,4A,2 | 
[V:3] G,4E,4 | 
[V:4] E,6D,C, | 
[V:1] d4e2d2- | 
[V:2] B,6A,G, | 
[V:3] F,2G,4F,E, | 
[V:4] B,,4z2B,,2 | 
[V:1] d2cBc2B2 | 
[V:2] F,4G,4 | 
[V:3] D,4E,4 | 
[V:4] B,,4z4 | 
[V:1] f4e2d2- | 
[V:2] F,4z4 | 
[V:3] D,4G,4 | 
[V:4] z2D,2C,2B,,2- | 
[V:1] d2cBA4 | 
[V:2] z2C,2C,4 | 
[V:3] z2F,4E,F, | 
[V:4] B,,2A,,G,,F,,4 | 
[V:1] z4z2c2- | 
[V:2] C,4z2F,2 | 
[V:3] G,2F,4E,D, | 
[V:4] z2F,,2F,,4 | 
[V:1] c2Bcd2c2- | 
[V:2] F,4F,4 | 
[V:3] C,4B,,2F,2 | 
[V:4] F,,4z2F,,2 | 
[V:1] c2BAG4 | 
[V:2] z2C,4B,,C, | 
[V:3] G,2F,4=E,2 | 
[V:4] E,,2F,,2C,4 | 
[V:1] F2c4Bc | 
[V:2] D,2C,2F,3G, | 
[V:3] F,4z2F,2- | 
[V:4] F,,4z2F,,2 | 
[V:1] d2c2BAc2- | 
[V:2] A,4z4 | 
[V:3] F,2E,F,G,2F,2- | 
[V:4] F,,4z2F,,2 | 
[V:1] c2B4A2 | 
[V:2] z2F,2F,4 | 
[V:3] F,2E,D,C,4 | 
[V:4] F,,4F,,4 | 
[V:1] B8 |]  
[V:2] F,8 |]  
[V:3] B,,8 |]  
[V:4] B,,,8 & B,,8 |]  



